flags/eh.svg

<svg width="512" height="512" viewBox="0 0 512 512" fill="none" xmlns="http://www.w3.org/2000/svg">
<path d="M512 128V384H0L1.11901e-05 128L512 128Z" fill="var(--flag-palette-white, #eeeeee)"/>
<path d="M512 368V512L0 512L6.29444e-06 368L512 368Z" fill="var(--flag-palette-dark-green, #496e2d)"/>
<path d="M512 2.23802e-05V144L0 144L6.29444e-06 0L512 2.23802e-05Z" fill="var(--flag-palette-black, #333333)"/>
<path d="M0 0V512L256 256L0 0Z" fill="var(--flag-palette-bright-red, #d80027)"/>
<path d="M333.513 185.509C343.414 180.887 354.176 178.397 365.101 178.2C371.451 178.03 377.797 178.634 384.001 180C366.719 183.886 351.274 193.538 340.208 207.369C329.141 221.2 323.112 238.386 323.112 256.1C323.112 273.813 329.141 290.999 340.208 304.83C351.274 318.662 366.719 328.314 384.001 332.2C373.353 334.651 362.308 334.837 351.583 332.746C340.858 330.656 330.692 326.335 321.744 320.065C312.795 313.794 305.264 305.713 299.638 296.346C294.013 286.979 290.418 276.534 289.087 265.689C287.756 254.843 288.718 243.839 291.912 233.389C295.106 222.94 300.459 213.278 307.626 205.029C314.792 196.781 323.612 190.13 333.513 185.509Z" fill="var(--flag-palette-bright-red, #d80027)"/>
<path d="M398.3 240.1L387.3 206.1L376.2 240.1H340.4L369.4 261.1L358.3 295.1L387.2 274.1L416.2 295.1L405.1 261.1L434.1 240.1H398.3Z" fill="var(--flag-palette-bright-red, #d80027)"/>
</svg>

<svg xmlns="http://www.w3.org/2000/svg" width="512" height="512" fill="none"><path fill="var(--flag-palette-white, #eeeeee)" d="M512 128v256H0V128z"/><path fill="var(--flag-palette-dark-green, #496e2d)" d="M512 368v144H0V368z"/><path fill="var(--flag-palette-black, #333333)" d="M512 0v144H0V0z"/><path fill="var(--flag-palette-bright-red, #d80027)" d="M0 0v512l256-256zm333.5 185.5A78 78 0 0 1 384 180a78 78 0 0 0 0 152.2 78 78 0 0 1-50.5-146.7"/><path fill="var(--flag-palette-bright-red, #d80027)" d="m398.3 240.1-11-34-11.1 34h-35.8l29 21-11.1 34 28.9-21 29 21-11.1-34 29-21z"/></svg>
